img/logos/ebay.svg

<?xml version="1.0" encoding="UTF-8" standalone="no"?>
<svg width="110px" height="44px" viewBox="0 0 110 44" version="1.1" xmlns="http://www.w3.org/2000/svg" xmlns:xlink="http://www.w3.org/1999/xlink">
    <!-- Generator: Sketch 45 (43475) - http://www.bohemiancoding.com/sketch -->
    <title>ebay</title>
    <desc>Created with Sketch.</desc>
    <defs></defs>
    <g id="Page-1" stroke="none" stroke-width="1" fill="none" fill-rule="evenodd" opacity="0.597423041">
        <g id="Envoy-R2" transform="translate(-298.000000, -1114.000000)" fill-rule="nonzero" fill="#222222">
            <g id="Group-22" transform="translate(298.000000, 1005.000000)">
                <g id="ebay" transform="translate(0.000000, 109.000000)">
                    <path d="M14.2512333,9.56690909 C6.4977,9.56690909 0.0366666667,12.8287273 0.0366666667,22.6709091 C0.0366666667,30.468 4.3813,35.3778182 14.4510667,35.3778182 C26.3039333,35.3778182 27.0636667,27.6345455 27.0636667,27.6345455 L21.3205667,27.6345455 C21.3205667,27.6345455 20.0893,31.804 14.1009,31.804 C9.2235,31.804 5.7156,28.5363636 5.7156,23.9567273 L27.6646333,23.9567273 L27.6646333,21.0825455 C27.6646333,16.5516364 24.7643,9.56690909 14.2512333,9.56690909 L14.2512333,9.56690909 Z M14.0506667,13.24 C18.6934,13.24 21.8584667,16.0607273 21.8584667,20.2883636 L5.84246667,20.2883636 C5.84246667,15.8 9.97406667,13.24 14.0506667,13.24 L14.0506667,13.24 Z" id="Shape"></path>
                    <path d="M27.6606,0.0363636364 L27.6606,30.4352727 C27.6606,32.1607273 27.5363,34.5836364 27.5363,34.5836364 L33.0139333,34.5836364 C33.0139333,34.5836364 33.2108333,32.8436364 33.2108333,31.2530909 C33.2108333,31.2530909 35.9172,35.4523636 43.2762,35.4523636 C51.0253333,35.4523636 56.2892,30.1163636 56.2892,22.4723636 C56.2892,15.3607273 51.4543333,9.64109091 43.2886667,9.64109091 C35.6422,9.64109091 33.2662,13.736 33.2662,13.736 L33.2662,0.0363636364 L27.6606,0.0363636364 Z M41.8748,13.4010909 C47.1372,13.4010909 50.4837667,17.2745455 50.4837667,22.4723636 C50.4837667,28.0461818 46.6187333,31.6923636 41.9125667,31.6923636 C36.2959667,31.6923636 33.2662,27.3429091 33.2662,22.5218182 C33.2662,18.0294545 35.9846667,13.4010909 41.8748,13.4010909 L41.8748,13.4010909 Z" id="Shape"></path>
                    <path d="M69.9031667,9.56690909 C58.2387667,9.56690909 57.4907667,15.9007273 57.4907667,16.9130909 L63.2965667,16.9130909 C63.2965667,16.9130909 63.6009,13.2152727 69.5027667,13.2152727 C73.3377333,13.2152727 76.3095667,14.9563636 76.3095667,18.3029091 L76.3095667,19.4941818 L69.5027667,19.4941818 C60.4662667,19.4941818 55.6889667,22.116 55.6889667,27.4363636 C55.6889667,32.672 60.1029,35.5207273 66.0682,35.5207273 C74.1979333,35.5207273 76.8166667,31.0658182 76.8166667,31.0658182 C76.8166667,32.8378182 76.9541667,34.584 76.9541667,34.584 L82.1153667,34.584 C82.1153667,34.584 81.9155333,32.4196364 81.9155333,31.0349091 L81.9155333,19.0661818 C81.9155333,11.2181818 75.5326,9.56690909 69.9031667,9.56690909 L69.9031667,9.56690909 Z M76.3095667,23.068 L76.3095667,24.6563636 C76.3095667,26.728 75.0203667,31.8785455 67.4318333,31.8785455 C63.2764,31.8785455 61.4947667,29.8218182 61.4947667,27.436 C61.4947667,23.096 67.4945333,23.068 76.3095667,23.068 Z" id="Shape"></path>
                    <polygon id="Shape" points="78.7889667 10.5603636 85.3204 10.5603636 94.6942333 29.1850909 104.046433 10.5603636 109.963333 10.5603636 92.9283667 43.7181818 86.7218 43.7181818 91.6373333 34.4749091 78.7889667 10.5603636"></polygon>
                </g>
            </g>
        </g>
    </g>
</svg>

<svg width="110" height="44" xmlns="http://www.w3.org/2000/svg"><g fill="#222" fill-rule="nonzero" opacity=".597"><path d="M14.251 9.567C6.498 9.567.036 12.829.036 22.67c0 7.797 4.345 12.707 14.414 12.707 11.853 0 12.613-7.743 12.613-7.743H21.32s-1.231 4.17-7.22 4.17c-4.877 0-8.385-3.269-8.385-7.848h21.949v-2.874c0-4.531-2.9-11.516-13.413-11.516zm-.2 3.673c4.642 0 7.807 2.82 7.807 7.048H5.842c0-4.488 4.132-7.048 8.208-7.048z"/><path d="M27.661.036v30.4c0 1.725-.124 4.148-.124 4.148h5.477s.197-1.74.197-3.33c0 0 2.707 4.199 10.065 4.199 7.75 0 13.013-5.336 13.013-12.98 0-7.112-4.835-12.831-13-12.831-7.647 0-10.023 4.094-10.023 4.094V.036h-5.605zm14.214 13.365c5.262 0 8.609 3.874 8.609 9.072 0 5.573-3.865 9.22-8.571 9.22-5.617 0-8.647-4.35-8.647-9.17 0-4.493 2.719-9.122 8.609-9.122z"/><path d="M69.903 9.567c-11.664 0-12.412 6.334-12.412 7.346h5.806s.304-3.698 6.206-3.698c3.835 0 6.807 1.741 6.807 5.088v1.191h-6.807c-9.037 0-13.814 2.622-13.814 7.942 0 5.236 4.414 8.085 10.379 8.085 8.13 0 10.748-4.455 10.748-4.455 0 1.772.138 3.518.138 3.518h5.16s-.2-2.164-.2-3.549V19.066c0-7.848-6.382-9.5-12.011-9.5zm6.406 13.5v1.59c0 2.07-1.289 7.222-8.877 7.222-4.156 0-5.937-2.057-5.937-4.443 0-4.34 6-4.368 14.815-4.368z"/><path d="M78.789 10.56h6.531l9.374 18.625 9.356-18.625h5.91L92.928 43.718h-6.206l4.915-9.243z"/></g></svg>
